X:9775
T:Lombardina
C:R. Tesi: Il ballo della lepre 8a
M:6/8
L:1/8
K:C
GAB cde|egf edc|1 Bce dcB|\
AG^F G2G:|2 Bce d2g|^fga b2g g3||
|:gag gag| fed dde |fef agf| ege c2c|\
gec gec| a2a  abc'| bag fed| c2c c3:|
